!!!OTL: ES WAREN MAL DREI FRANZOSEN
!!!ARE: Europa, Mitteleuropa, Deutschland, Hessen, Kassel
!!!SCT: E1305D
!!!YEM: Copyright 1995, estate of Helmut Schaffrath.
**kern
*ICvox
*Ivox
*M4/4
*k[f#]
*G:
{4d
=1
4g
8f#
8e
4a
8f#
8d
=2
4g
4d
4r}
{4d
=3
4g
8f#
8e
4a
8f#
8d
=4
4g
4d
4r}
{4dd
=5
8b
8b
8b
8b
4b
8b}
{8dd
=6
8ee
8dd
8ee
8cc
4a
8r}
{8g
=7
8f#
8a
8a
8a
4.dd}
{8cc
=8
8b
8b
8a
8a
4g}
==
!!!AGN: Staende -, Soldaten - Lied, Reiter
!!!ONB: ESAC (Essen Associative Code) Database: ERK3
!!!AMT: simple quadruple
!!!AIN: vox
!!!EED: Helmut Schaffrath
!!!EEV: 1.0
*-
